X:1
T:St. Anatolius (Brown), 76.76.88
T:St. Anatolius (Brown), 76.76.88
T:Arthur Henry Brown, 1862
T:Public Domain Courtesy of the Cyber Hymnal™
C:Arthur Henry Brown, 1862
Z:Public Domain
Z:Courtesy of the Cyber Hymnal™
%%score ( 1 2 ) ( 3 4 )
L:1/8
Q:1/4=115
M:4/4
K:Eb
V:1 treble 
V:2 treble 
V:3 bass 
V:4 bass 
V:1
 [EB]2 | [Ec]2 [B,B]2 [CE]2 [FA]2 | [EG]4 [DF]2 E2 | [CF]2 [=EG]2 [FA]2 [Gc]2 | [FB]6 [EB]2 | %5
 [Ec]2 [B,B]2 [CE]2 [FA]2 | [EG]4 [DF]2 E2 | [CF]2 [FA]2 [EG]2 [DF]2 | E6 [Ge]2 | %9
 [^Fd]2 [Fc]2 [GB]2 [Gc]2 | d2 z [DB]2 [_DB]2 x | [CA]2 [EG]2 F2 [CE]2 | %12
 [B,E]2 [B,D]2 !fermata![B,E]2 |] %13
V:2
 x2 | x8 | x6 E2 | x8 | x8 | x8 | x6 E2 | x8 | E6 x2 | x8 | F3 (c2 E) x2 | x4 F2 x2 | x6 |] %13
V:3
 [E,G,]2 | [E,A,]2 [E,G,]2 [C,G,]2 [A,,C]2 | [B,,B,]4 [B,,B,]2 [C,G,]2 | %3
 A,2 [G,B,]2 [F,C]2 [E,G,]2 | [D,B,]6 [E,G,]2 | [E,A,]2 [E,G,]2 [C,G,]2 [A,,C]2 | %6
 [B,,B,]4 [B,,B,]2 [C,G,]2 | [A,,A,]2 [F,,C]2 B,2 [B,,A,]2 | [E,G,]6 [C,C]2 | %9
 [D,=A,]2 [D,A,]2 [E,G,]2 [=E,G,]2 | [F,B,]2 [F,=A,]2 [B,,B,]2 [E,G,]2 | %11
 [F,A,]2 [G,B,]2 [A,C]2 (A,G,) | (F,G,) [B,,A,]2 !fermata![E,G,]2 |] %13
V:4
 x2 | x8 | x8 | A,2 x6 | x8 | x8 | x8 | x4 (G,,A,,) x2 | x8 | x8 | x8 | x6 A,,2 | B,,2 x4 |] %13

